src/home/img/benefit-responsive.svg

<svg height="66" viewBox="0 0 65 66" width="65" xmlns="http://www.w3.org/2000/svg" xmlns:xlink="http://www.w3.org/1999/xlink"><linearGradient id="a" x1="50%" x2="50%" y1="0%" y2="100%"><stop offset="0" stop-color="#3f6abc"/><stop offset="1" stop-color="#1851be"/></linearGradient><filter id="b" height="108.7%" width="113.8%" x="-6.9%" y="-4.4%"><feGaussianBlur in="SourceGraphic" stdDeviation=".65"/></filter><linearGradient id="c"><stop offset="0" stop-color="#fff"/><stop offset="1" stop-color="#aec3eb"/></linearGradient><linearGradient id="d" x1="0%" x2="0%" xlink:href="#c" y1="0%" y2="100%"/><radialGradient id="e" cx="100%" cy="0%" gradientTransform="matrix(0 .63265 -1 0 1 -.633)" r="207.252%" xlink:href="#c"/><mask id="f" fill="#fff"><path d="m.5 13.84c0-7.367 5.973-13.34 13.34-13.34h48.32c7.367 0 13.34 5.973 13.34 13.34v48.32c0 7.367-5.973 13.34-13.34 13.34h-48.32c-7.367 0-13.34-5.973-13.34-13.34z" fill="#fff" fill-rule="evenodd"/></mask><g fill="none" fill-rule="evenodd" transform="translate(-15 -5)"><path d="m.5 13.84c0-7.367 5.973-13.34 13.34-13.34h48.32c7.367 0 13.34 5.973 13.34 13.34v48.32c0 7.367-5.973 13.34-13.34 13.34h-48.32c-7.367 0-13.34-5.973-13.34-13.34z" mask="url(#f)"/><path d="m.5 13.84c0-7.367 5.973-13.34 13.34-13.34h48.32c7.367 0 13.34 5.973 13.34 13.34v48.32c0 7.367-5.973 13.34-13.34 13.34h-48.32c-7.367 0-13.34-5.973-13.34-13.34z"/><path d="m.5 13.84c0-7.367 5.973-13.34 13.34-13.34h48.32c7.367 0 13.34 5.973 13.34 13.34v48.32c0 7.367-5.973 13.34-13.34 13.34h-48.32c-7.367 0-13.34-5.973-13.34-13.34z"/><g fill-rule="nonzero" transform="translate(16 6)"><path d="m34.4 0h-28.32941176c-3.35147059 0-6.07058824 2.6875-6.07058824 6v52c0 3.3125 2.71911765 6 6.07058824 6h28.32941176c3.3514706 0 6.0705882-2.6875 6.0705882-6v-52c0-3.3125-2.7191176-6-6.0705882-6zm-14.1647059 60c-2.2385294 0-4.0470588-1.7875-4.0470588-4s1.8085294-4 4.0470588-4 4.0470588 1.7875 4.0470588 4-1.8085294 4-4.0470588 4z" fill="url(#a)" filter="url(#b)" stroke="#fff" stroke-opacity=".01" stroke-width="1.68"/><path d="m34.4 0h-28.32941176c-3.35147059 0-6.07058824 2.6875-6.07058824 6v52c0 3.3125 2.71911765 6 6.07058824 6h28.32941176c3.3514706 0 6.0705882-2.6875 6.0705882-6v-52c0-3.3125-2.7191176-6-6.0705882-6zm-14.1647059 60c-2.2385294 0-4.0470588-1.7875-4.0470588-4s1.8085294-4 4.0470588-4 4.0470588 1.7875 4.0470588 4-1.8085294 4-4.0470588 4z" fill="url(#a)" stroke="#fff" stroke-opacity=".01" stroke-width="1.68"/><path d="m59.6235294 14.1176471h-20.4235294c-2.4161765 0-4.3764706 1.9365808-4.3764706 4.3235294v37.4705882c0 2.3869485 1.9602941 4.3235294 4.3764706 4.3235294h20.4235294c2.4161765 0 4.3764706-1.9365809 4.3764706-4.3235294v-37.4705882c0-2.3869486-1.9602941-4.3235294-4.3764706-4.3235294zm-10.2117647 43.2352941c-1.6138235 0-2.9176471-1.2880515-2.9176471-2.882353 0-1.5943014 1.3038236-2.8823529 2.9176471-2.8823529s2.9176471 1.2880515 2.9176471 2.8823529c0 1.5943015-1.3038236 2.882353-2.9176471 2.882353z" fill="url(#d)"/><path d="m59.6235294 14.1176471h-20.4235294c-2.4161765 0-4.3764706 1.9365808-4.3764706 4.3235294v37.4705882c0 2.3869485 1.9602941 4.3235294 4.3764706 4.3235294h20.4235294c2.4161765 0 4.3764706-1.9365809 4.3764706-4.3235294v-37.4705882c0-2.3869486-1.9602941-4.3235294-4.3764706-4.3235294z" fill="url(#e)"/></g></g></svg>

<svg xmlns="http://www.w3.org/2000/svg" xmlns:xlink="http://www.w3.org/1999/xlink" width="65" height="66" viewBox="0 0 65 66">
  <defs>
    <path id="benefit-responsive-a" d="M0.5,13.84 C0.5,6.473 6.473,0.5 13.84,0.5 L62.16,0.5 C69.527,0.5 75.5,6.473 75.5,13.84 L75.5,62.16 C75.5,69.527 69.527,75.5 62.16,75.5 L13.84,75.5 C6.473,75.5 0.5,69.527 0.5,62.16 L0.5,13.84 Z"/>
    <linearGradient id="benefit-responsive-c" x1="50%" x2="50%" y1="0%" y2="100%">
      <stop offset="0%" stop-color="#3F6ABC"/>
      <stop offset="100%" stop-color="#1851BE"/>
    </linearGradient>
    <filter id="benefit-responsive-d" width="113.8%" height="108.7%" x="-6.9%" y="-4.4%" filterUnits="objectBoundingBox">
      <feGaussianBlur in="SourceGraphic" stdDeviation=".65"/>
    </filter>
    <linearGradient id="benefit-responsive-e" x1="0%" x2="0%" y1="0%" y2="100%">
      <stop offset="0%" stop-color="#FFF"/>
      <stop offset="100%" stop-color="#AEC3EB"/>
    </linearGradient>
    <radialGradient id="benefit-responsive-f" cx="100%" cy="0%" r="207.252%" fx="100%" fy="0%" gradientTransform="matrix(0 .63265 -1 0 1 -.633)">
      <stop offset="0%" stop-color="#FFF"/>
      <stop offset="100%" stop-color="#AEC3EB"/>
    </radialGradient>
  </defs>
  <g fill="none" fill-rule="evenodd" transform="translate(-15 -5)">
    <mask id="benefit-responsive-b" fill="#fff">
      <use xlink:href="#benefit-responsive-a"/>
    </mask>
    <path d="M0.5,13.84 C0.5,6.473 6.473,0.5 13.84,0.5 L62.16,0.5 C69.527,0.5 75.5,6.473 75.5,13.84 L75.5,62.16 C75.5,69.527 69.527,75.5 62.16,75.5 L13.84,75.5 C6.473,75.5 0.5,69.527 0.5,62.16 L0.5,13.84 Z" mask="url(#benefit-responsive-b)"/>
    <path d="M0.5,13.84 C0.5,6.473 6.473,0.5 13.84,0.5 L62.16,0.5 C69.527,0.5 75.5,6.473 75.5,13.84 L75.5,62.16 C75.5,69.527 69.527,75.5 62.16,75.5 L13.84,75.5 C6.473,75.5 0.5,69.527 0.5,62.16 L0.5,13.84 Z"/>
    <path d="M0.5,13.84 C0.5,6.473 6.473,0.5 13.84,0.5 L62.16,0.5 C69.527,0.5 75.5,6.473 75.5,13.84 L75.5,62.16 C75.5,69.527 69.527,75.5 62.16,75.5 L13.84,75.5 C6.473,75.5 0.5,69.527 0.5,62.16 L0.5,13.84 Z"/>
    <g fill-rule="nonzero" transform="translate(16 6)">
      <path fill="url(#benefit-responsive-c)" stroke="#FFF" stroke-opacity=".01" stroke-width="1.68" d="M34.4,0 L6.07058824,0 C2.71911765,0 0,2.6875 0,6 L0,58 C0,61.3125 2.71911765,64 6.07058824,64 L34.4,64 C37.7514706,64 40.4705882,61.3125 40.4705882,58 L40.4705882,6 C40.4705882,2.6875 37.7514706,0 34.4,0 Z M20.2352941,60 C17.9967647,60 16.1882353,58.2125 16.1882353,56 C16.1882353,53.7875 17.9967647,52 20.2352941,52 C22.4738235,52 24.2823529,53.7875 24.2823529,56 C24.2823529,58.2125 22.4738235,60 20.2352941,60 Z" filter="url(#benefit-responsive-d)"/>
      <path fill="url(#benefit-responsive-c)" stroke="#FFF" stroke-opacity=".01" stroke-width="1.68" d="M34.4,0 L6.07058824,0 C2.71911765,0 0,2.6875 0,6 L0,58 C0,61.3125 2.71911765,64 6.07058824,64 L34.4,64 C37.7514706,64 40.4705882,61.3125 40.4705882,58 L40.4705882,6 C40.4705882,2.6875 37.7514706,0 34.4,0 Z M20.2352941,60 C17.9967647,60 16.1882353,58.2125 16.1882353,56 C16.1882353,53.7875 17.9967647,52 20.2352941,52 C22.4738235,52 24.2823529,53.7875 24.2823529,56 C24.2823529,58.2125 22.4738235,60 20.2352941,60 Z"/>
      <path fill="url(#benefit-responsive-e)" d="M59.6235294,14.1176471 L39.2,14.1176471 C36.7838235,14.1176471 34.8235294,16.0542279 34.8235294,18.4411765 L34.8235294,55.9117647 C34.8235294,58.2987132 36.7838235,60.2352941 39.2,60.2352941 L59.6235294,60.2352941 C62.0397059,60.2352941 64,58.2987132 64,55.9117647 L64,18.4411765 C64,16.0542279 62.0397059,14.1176471 59.6235294,14.1176471 Z M49.4117647,57.3529412 C47.7979412,57.3529412 46.4941176,56.0648897 46.4941176,54.4705882 C46.4941176,52.8762868 47.7979412,51.5882353 49.4117647,51.5882353 C51.0255882,51.5882353 52.3294118,52.8762868 52.3294118,54.4705882 C52.3294118,56.0648897 51.0255882,57.3529412 49.4117647,57.3529412 Z"/>
      <path fill="url(#benefit-responsive-f)" d="M59.6235294,14.1176471 L39.2,14.1176471 C36.7838235,14.1176471 34.8235294,16.0542279 34.8235294,18.4411765 L34.8235294,55.9117647 C34.8235294,58.2987132 36.7838235,60.2352941 39.2,60.2352941 L59.6235294,60.2352941 C62.0397059,60.2352941 64,58.2987132 64,55.9117647 L64,18.4411765 C64,16.0542279 62.0397059,14.1176471 59.6235294,14.1176471 Z"/>
    </g>
  </g>
</svg>
